X:1
T:Non temer ch'io ti lassi
T:Non temer ch'io ti lassi
T:Paolo Scotto (?-1514)
C:Paolo Scotto (?-1514)
%%score [ 1 2 3 4 ]
L:1/8
M:2/2
K:C
V:1 treble nm="Soprano"
V:2 treble nm="Alto"
V:3 treble-8 nm="Tenor"
V:4 bass nm="Bass"
V:1
 G2 | G2 D2 E2 F2 | G2 G2 z2 G2 | G2 G2 c2 c2 | B2 B2 z2 G2 | G2 A2 F2 G2 | E2 E2 z2 E2 | %7
w: Non|te- mer ch'io ti|las- si, si-|gno- ra~in sem- pi-|ter- no, an-|che sta- ra~in e-|ter- no la|
 F2 G4 F2 | G8- | G8- | G8- | G8- | G8- | !fermata!G6 |] %14
w: mi- a fe-|de.|_|||||
V:2
 C2 | C2 (B,A,) G,2 D2 | D2 D2 z2 E2 | D2 D G2 E F2 | G2 G2 z2 D2 | E2 F2 A2 D2 | G2 G2 z2 (FE) | %7
w: Non|te- mer _ ch'io ti|las- si, si-|gno- ra in sem- pi-|ter- no, an-|che sta- ra~in e-|ter- no la _|
 D2 C2 D4 | B,8 | D2 C4 B, A, | D2 B,2 D3 C | B,8 | C6 (B,A,) | !fermata!B,6 |] %14
w: mi- a fe-|de,|an- che sta- ra~in|e- ter- no la|mi-|a fe- *|de.|
V:3
 G2 | G2 B2 c2 A2 | B2 B2 z2 c2 | c2 B2 c2 c2 | d2 d2 z2 B2 | c4 d2 B2 | c2 B A G2 (c2- | %7
w: Non|te- mer ch'io ti|las- si, si-|gno- ra~in sem- pi-|ter- no, an-|che sta- ra~in|e- ter- no la mi-|
 cBA) G A4 | G8 | G2 e4 d c | B2 G3 (ABc) | d8 | e4 e4 | !fermata!d6 |] %14
w: * * * a fe-|de,|an- che sta- ra~in|e- ter- no _ _|la|mia fe-|de.|
V:4
 C,2 | C,2 G,2 C,2 D,2 | G,2 G,2 z2 C,2 | C,2 G,2 A,2 A,2 | G,2 G,2 z2 G,2 | C,2 F,2 D,2 G,2 | %6
w: Non|te- mer ch'io ti|las- si, si-|gno- ra~in sem- pi-|ter- no, an-|che sta- ra~in e-|
 C,4 C,4 | D,2 E,2 D,4 | G,,8 | G,2 C,3 D, E, F, | G,4 G,4 | G,8 | C,8 | !fermata!G,6 |] %14
w: ter- no|la mia fe-|de,|an- che sta- ra~in e-|ter- no|la~mia|fe-|de.|

